X:18516
T:Ward Allen's Breakdown
C:Ward Allen
R:Breakdown
M:4/4
L:1/8
K:Bb
B,2 DF E2 GE|F2 Ac B2 FA|B2 FB d2 cB|Ac=eg f4|
B,2 DF E2 GE|F2 Ac B2 cB|A2 FA ecAc|BdcA B2 z2:|
K:F
|:c4 cBAG|FGAc f2 ef|g2 bg efge|fgaf cBAB|
c4 cBAG|FGAc f2 ef|g2 bg efge|fefg f2 z2:|


